src/build/icons/LineIcons/group-direct.svg

<svg width="32px" height="32px" viewBox="0 0 32 32" version="1.1" xmlns="http://www.w3.org/2000/svg" xmlns:xlink="http://www.w3.org/1999/xlink">
    <g id="Page-1" stroke="none" stroke-width="1" fill="none" fill-rule="evenodd">
        <g id="Artboard" transform="translate(-12.000000, -60.000000)">
            <g id="Direct" transform="translate(12.000000, 60.000000)">
                <rect id="Rectangle" stroke="#FAFAFA" x="0.5" y="0.5" width="31" height="31" rx="3"></rect>
                <path d="M22.6704699,9.74836885 L22.6704699,12.3022611 C22.9363018,12.5815931 23.764026,12.6984565 24.0289689,12.4191245 L27.8012929,9.37212578 C28.0662357,9.0908936 28.0662357,8.63579151 27.8012929,8.35550943 L24.0289689,5.30756058 C23.764026,5.0272785 22.9363018,4.86576001 22.6704699,5.14604209 L22.6704699,7.84815136 L18.2251199,7.84815136 L8.44534998,22.0997825 L4.88907,22.0997825 C4.39741429,22.0997825 4,22.4541731 4,22.9738826 C4,23.4926419 4.39741429,24 4.88907,24 L9.33441997,24 L19.1141899,9.74836885 L22.6704699,9.74836885 L22.6704699,9.74836885 Z" id="Fill-117" fill="#FAFAFA"></path>
            </g>
        </g>
    </g>
</svg>

<svg width="32px" height="32px" version="1.1" viewBox="0 0 32 32" xmlns="http://www.w3.org/2000/svg">
 <g fill="none" fill-rule="evenodd">
  <g>
   <rect x=".5" y=".5" width="31" height="31" rx="3" stroke="#f00"/>
   <path d="m22.67 9.7484v2.5539c0.26583 0.27933 1.0936 0.3962 1.3585 0.11686l3.7723-3.047c0.26494-0.28123 0.26494-0.73633 0-1.0166l-3.7723-3.0479c-0.26494-0.28028-1.0927-0.4418-1.3585-0.16152v2.7021h-4.4454l-9.7798 14.252h-3.5563c-0.49166 0-0.88907 0.35439-0.88907 0.8741 0 0.51876 0.39741 1.0261 0.88907 1.0261h4.4454l9.7798-14.252z" fill="#f00"/>
  </g>
 </g>
</svg>
